; HEADER_BLOCK_START
; generated by ElegooSlicer 1.1.8.2 on 2025-07-10 at 15:49:24
; total layer number: 15
; filament_density: 1.25
; filament_diameter: 1.75
; max_z_height: 3.00
; HEADER_BLOCK_END



; THUMBNAIL_BLOCK_START

;
; THUMBNAIL_BLOCK_END

; external perimeters extrusion width = 0.42mm
; perimeters extrusion width = 0.45mm
; infill extrusion width = 0.45mm
; solid infill extrusion width = 0.42mm
; top infill extrusion width = 0.42mm
; first layer extrusion width = 0.50mm

; EXECUTABLE_BLOCK_START
EXCLUDE_OBJECT_DEFINE NAME=rr-baseplate.stl_id_0_copy_0 CENTER=128.5,128.5 POLYGON=[[72.5,43.5],[72.5042,43.3283],[72.5169,43.1569],[72.5379,42.9864],[72.5673,42.8172],[72.6049,42.6496],[72.6507,42.484],[72.7046,42.3209],[72.7664,42.1606],[72.836,42.0036],[72.9133,41.8501],[72.9979,41.7006],[73.0899,41.5555],[73.1888,41.4151],[73.2945,41.2796],[73.4067,41.1495],[73.5251,41.0251],[73.6495,40.9067],[73.7796,40.7945],[73.9151,40.6888],[74.0555,40.5899],[74.2006,40.4979],[74.3501,40.4133],[74.5036,40.336],[74.6606,40.2664],[74.8209,40.2046],[74.984,40.1507],[75.1496,40.1049],[75.3172,40.0673],[75.4864,40.0379],[75.6569,40.0169],[75.8283,40.0042],[76,40],[181,40],[181.172,40.0042],[181.343,40.0169],[181.514,40.0379],[181.683,40.0673],[181.85,40.1049],[182.016,40.1507],[182.179,40.2046],[182.339,40.2664],[182.496,40.336],[182.65,40.4133],[182.799,40.4979],[182.944,40.5899],[183.085,40.6888],[183.22,40.7945],[183.35,40.9067],[183.475,41.0251],[183.593,41.1495],[183.706,41.2796],[183.811,41.4151],[183.91,41.5555],[184.002,41.7006],[184.087,41.8501],[184.164,42.0036],[184.234,42.1606],[184.295,42.3209],[184.349,42.484],[184.395,42.6496],[184.433,42.8172],[184.462,42.9864],[184.483,43.1569],[184.496,43.3283],[184.5,43.5],[184.5,213.5],[184.496,213.672],[184.483,213.843],[184.462,214.014],[184.433,214.183],[184.395,214.35],[184.349,214.516],[184.295,214.679],[184.234,214.839],[184.164,214.996],[184.087,215.15],[184.002,215.299],[183.91,215.444],[183.811,215.585],[183.706,215.72],[183.593,215.85],[183.475,215.975],[183.35,216.093],[183.22,216.206],[183.085,216.311],[182.944,216.41],[182.799,216.502],[182.65,216.587],[182.496,216.664],[182.339,216.734],[182.179,216.795],[182.016,216.849],[181.85,216.895],[181.683,216.933],[181.514,216.962],[181.343,216.983],[181.172,216.996],[181,217],[76,217],[75.8283,216.996],[75.6569,216.983],[75.4864,216.962],[75.3172,216.933],[75.1496,216.895],[74.984,216.849],[74.8209,216.795],[74.6606,216.734],[74.5036,216.664],[74.3501,216.587],[74.2006,216.502],[74.0555,216.41],[73.9151,216.311],[73.7796,216.206],[73.6495,216.093],[73.5251,215.975],[73.4067,215.85],[73.2945,215.72],[73.1888,215.585],[73.0899,215.444],[72.9979,215.299],[72.9133,215.15],[72.836,214.996],[72.7664,214.839],[72.7046,214.679],[72.6507,214.516],[72.6049,214.35],[72.5673,214.183],[72.5379,214.014],[72.5169,213.843],[72.5042,213.672],[72.5,213.5],[72.5,43.5]]
M106 S0
M106 P2 S0
;TYPE:Custom
;;===== date: 20240520 =====================
;printer_model:Elegoo Centauri Carbon
;initial_filament:PLA
;curr_bed_type:Textured PEI Plate
M400 ; wait for buffer to clear
M220 S100 ;Set the feed speed to 100%
M221 S100 ;Set the flow rate to 100%
M104 S140
M140 S60
G90
G28 ;home
M729 ;Clean Nozzle
M190 S60


;=============turn on fans to prevent PLA jamming=================

    
    M106 P3 S255
    ;Prevent PLA from jamming


;enable_pressure_advance:false
;This value is called if pressure advance is enabled

M204 S5000 ;Call exterior wall print acceleration


G1 X128.5 Y-1.2 F20000
G1 Z0.3 F900
M109 S220
M83
G92 E0 ;Reset Extruder
G1 F6000 
G1 X-1.2 E10.156 ;Draw the first line
G1 Y98.8 E7.934
G1 X-0.5 Y100 E0.1
G1 Y-0.3 E7.934
G1 X78.5 E6.284
G1 F1600 
G1 X98.5 E2
G1 F8000 
G1 X118.5 E2
G1 F1600 
G1 X138.5 E2
G1 F8000 
G1 X158.5 E2
G1 F8000 
G1 X178.5 E2
;End PA test.


G3 I-1 J0 Z0.6 F1200.0 ;Move to side a little
G1 F20000
G92 E0 ;Reset Extruder
;LAYER_COUNT:15
;LAYER:0
G90
G21
M83 ; use relative distances for extrusion
; filament start gcode
M106 P3 S200


;LAYER_CHANGE
;Z:0.2
;HEIGHT:0.2
;BEFORE_LAYER_CHANGE
;0.2
G92 E0

G1 E-.8 F1800
;LAYER:1

;_SET_FAN_SPEED_CHANGING_LAYER
SET_VELOCITY_LIMIT ACCEL=500
EXCLUDE_OBJECT_START NAME=rr-baseplate.stl_id_0_copy_0
G1 X119.912 Y141.771 F30000
G1 Z.6
G1 Z.2
G1 E.8 F1800
;TYPE:Inner wall
;WIDTH:0.5
G1 F3000
G1 X119.275 Y141.331 E.02796
G3 X127.319 Y112.737 I9.225 J-12.833 E1.39529
G1 X128.106 Y112.698 E.02848
G3 X119.948 Y141.788 I.394 J15.8 E2.13462
G1 X120.17 Y141.393 F30000
;TYPE:Outer wall
G1 F3000
G1 X119.542 Y140.96 E.02755
G3 X127.353 Y113.193 I8.958 J-12.462 E1.35493
G1 X128.117 Y113.155 E.02765
G3 X120.204 Y141.41 I.383 J15.343 E2.0725
G1 E-.728 F1800
;WIPE_START
G1 F30000
G1 X119.542 Y140.96 E-.04801
G1 X119.222 Y140.72 E-.02399
;WIPE_END
G1 X116.677 Y133.524 Z.6
G1 X108.395 Y110.1 Z.6
G1 Z.2
G1 E.8 F1800
;TYPE:Inner wall
G1 F3000
G1 X108.409 Y110.057 E.00163
G3 X110.386 Y108.311 I2.591 J.941 E.09937
G1 X110.657 Y108.263 E.00994
G3 X108.328 Y110.32 I.343 J2.735 E.50647
G1 X108.383 Y110.138 E.00685
G1 X108.831 Y110.24 F30000
;TYPE:Outer wall
G1 F3000
G1 X108.839 Y110.213 E.001
G3 X110.488 Y108.757 I2.161 J.785 E.08288
G1 X110.714 Y108.717 E.00829
G3 X108.726 Y110.657 I.286 J2.281 E.41414
G1 X108.822 Y110.279 E.0141
G1 E-.728 F1800
;WIPE_START
G1 F30000
G1 X108.839 Y110.213 E-.00406
G1 X109.037 Y109.8 E-.02748
G1 X109.314 Y109.435 E-.02749
G1 X109.476 Y109.292 E-.01298
;WIPE_END
G1 X117.066 Y110.095 Z.6
G1 X144.06 Y112.951 Z.6
G1 Z.2
G1 E.8 F1800
;TYPE:Inner wall
G1 F3000
G1 X143.974 Y112.867 E.00433
G3 X145.386 Y108.311 I2.026 J-1.869 E.20828
G1 X145.657 Y108.263 E.00994
G3 X144.282 Y113.154 I.343 J2.735 E.39225
G1 X144.089 Y112.978 E.00945
G1 X144.371 Y112.617 F30000
;TYPE:Outer wall
G1 F3000
G1 X144.313 Y112.56 E.00295
G3 X145.488 Y108.757 I1.687 J-1.562 E.17385
G1 X145.714 Y108.717 E.00829
G3 X144.567 Y112.797 I.286 J2.281 E.32717
G1 X144.4 Y112.644 E.00816
G1 E-.728 F1800
;WIPE_START
G1 F30000
G1 X144.313 Y112.56 E-.0073
G1 X144.037 Y112.2 E-.02723
G1 X143.838 Y111.787 E-.02749
G1 X143.797 Y111.626 E-.00998
;WIPE_END
G1 X144.053 Y119.254 Z.6
G1 X145.035 Y148.582 Z.6
G1 Z.2
G1 E.8 F1800
;TYPE:Inner wall
G1 F3000
G1 X144.994 Y148.564 E.00162
G3 X145.386 Y143.311 I1.006 J-2.566 E.25329
G1 X145.657 Y143.263 E.00994
G3 X145.254 Y148.652 I.343 J2.735 E.35255
G1 X145.073 Y148.594 E.00686
G1 X145.179 Y148.137 F30000
;TYPE:Outer wall
G1 F3000
G1 X144.952 Y148.045 E.00888
G3 X145.488 Y143.757 I1.048 J-2.046 E.20298
G1 X145.714 Y143.717 E.00829
G3 X145.378 Y148.212 I.286 J2.281 E.29405
G1 X145.217 Y148.151 E.00621
G1 E-.728 F1800
;WIPE_START
G1 F30000
G1 X144.952 Y148.045 E-.01714
G1 X144.566 Y147.799 E-.02747
G1 X144.311 Y147.562 E-.02088
G1 X144.246 Y147.475 E-.00651
;WIPE_END
G1 X136.614 Y147.353 Z.6
G1 X113.574 Y146.986 Z.6
G1 Z.2
G1 E.8 F1800
;TYPE:Inner wall
G1 F3000
G1 X113.483 Y147.196 E.00825
G3 X110.386 Y143.311 I-2.483 J-1.197 E.40218
G1 X110.657 Y143.263 E.00994
G3 X113.589 Y146.942 I.343 J2.735 E.20365
G1 X113.587 Y146.948 E.00023
G1 X113.145 Y146.8 F30000
;TYPE:Outer wall
G1 F3000
G1 X113.071 Y146.997 E.00761
G3 X110.488 Y143.757 I-2.071 J-.999 E.33545
G1 X110.714 Y143.717 E.00829
G3 X113.227 Y146.567 I.286 J2.281 E.16158
G1 X113.158 Y146.762 E.00748
G1 E-.728 F1800
;WIPE_START
G1 F30000
G1 X113.071 Y146.997 E-.01503
G1 X112.834 Y147.389 E-.02747
G1 X112.522 Y147.725 E-.02749
G1 X112.495 Y147.744 E-.002
;WIPE_END
G1 X109.126 Y140.896 Z.6
G1 X80.538 Y82.778 Z.6
G1 Z.2
G1 E.8 F1800
;TYPE:Inner wall
G1 F3000
G1 X80.55 Y82.768 E.00057
G3 X85.855 Y78.945 I5.461 J1.987 E.2509
G3 X89.835 Y80.39 I.137 J5.828 E.15654
G1 X106.85 Y95.403 E.81982
G3 X99.165 Y104.112 I-3.851 J4.347 E.65828
G1 X82.15 Y89.099 E.81982
G3 X80.457 Y83.042 I3.86 J-4.344 E.24008
G1 X80.527 Y82.817 E.00851
G1 X80.973 Y82.919 F30000
;TYPE:Outer wall
G1 F3000
G1 X81.076 Y82.676 E.00954
G3 X85.866 Y79.402 I4.934 J2.079 E.22152
G3 X89.536 Y80.736 I.126 J5.37 E.1444
G1 X106.543 Y95.742 E.81941
G3 X99.464 Y103.765 I-3.544 J4.008 E.60681
G1 X82.457 Y88.76 E.81941
G3 X80.967 Y82.955 I3.553 J-4.005 E.2298
G1 E-.728 F1800
;WIPE_START
G1 F30000
G1 X81.076 Y82.676 E-.01796
G1 X81.301 Y82.193 E-.03198
G1 X81.493 Y81.879 E-.02206
;WIPE_END
G1 X79.953 Y74.403 Z.6
G1 X73.425 Y42.719 Z.6
G1 Z.2
G1 E.8 F1800
;TYPE:Inner wall
G1 F3000
M73 P1 R49
G3 X76.01 Y40.807 I2.583 J.79 E.12441
G1 X181.127 Y40.81 E3.79776
G3 X183.693 Y43.51 I-.129 J2.692 E.14855
G1 X183.693 Y213.49 E6.14118
G3 X180.99 Y216.193 I-2.701 J.002 E.15341
G1 X76.01 Y216.193 E3.79281
G3 X73.307 Y213.49 I-.001 J-2.701 E.15341
G1 X73.307 Y43.51 E6.14118
G3 X73.414 Y42.757 I2.701 J-.002 E.02756
G1 X72.983 Y42.596 F30000
;TYPE:Outer wall
G1 F3000
G1 X72.988 Y42.586 E.00038
G3 X76.004 Y40.35 I3.022 J.923 E.14527
G1 X181.149 Y40.354 E3.79876
G3 X184.15 Y43.504 I-.151 J3.149 E.17349
G1 X184.15 Y213.496 E6.14159
G3 X180.996 Y216.65 I-3.159 J-.005 E.17893
G1 X76.004 Y216.65 E3.79322
G3 X72.85 Y213.496 I.005 J-3.159 E.17893
G1 X72.85 Y43.504 E6.14159
G3 X72.912 Y42.886 I3.159 J.005 E.0225
G1 X72.974 Y42.634 E.00934
G1 E-.728 F1800
;WIPE_START
G1 F30000
G1 X72.988 Y42.586 E-.00301
G1 X73.09 Y42.295 E-.01854
G1 X73.222 Y42.015 E-.01855
G1 X73.381 Y41.75 E-.01855
G1 X73.513 Y41.571 E-.01335
;WIPE_END
G1 X81.146 Y41.643 Z.6
G1 X183.292 Y42.603 Z.6
G1 Z.2
G1 E.8 F1800
;TYPE:Bottom surface
;WIDTH:0.500308
G1 F6300
G1 X182.515 Y41.826 E.03975
G2 X181.306 Y41.264 I-1.533 J1.718 E.04887
G1 X183.235 Y43.192 E.09858
G3 X183.259 Y43.863 I-4.613 J.502 E.0243
G1 X180.64 Y41.245 E.13389
G1 X179.993 Y41.245 E.02339
G1 X183.259 Y44.51 E.16696
G1 X183.259 Y45.157 E.02339
G1 X179.346 Y41.245 E.20004
G1 X178.699 Y41.245 E.02339
G1 X183.259 Y45.804 E.23311
G1 X183.259 Y46.451 E.02339
G1 X178.053 Y41.245 E.26618
G1 X177.406 Y41.245 E.02339
G1 X183.259 Y47.098 E.29925
G1 X183.259 Y47.744 E.02339
G1 X176.759 Y41.245 E.33233
G1 X176.112 Y41.244 E.02339
G1 X183.259 Y48.391 E.3654
G1 X183.259 Y49.038 E.02339
G1 X175.465 Y41.244 E.39847
G1 X174.818 Y41.244 E.02339
G1 X183.259 Y49.685 E.43155
G1 X183.259 Y50.332 E.02339
G1 X174.171 Y41.244 E.46462
G1 X173.525 Y41.244 E.02339
G1 X183.259 Y50.979 E.49769
G1 X183.259 Y51.625 E.02339
G1 X172.878 Y41.244 E.53077
G1 X172.231 Y41.244 E.02339
G1 X183.259 Y52.272 E.56384
G1 X183.259 Y52.919 E.02339
G1 X171.584 Y41.244 E.59691
G1 X170.937 Y41.244 E.02339
G1 X183.259 Y53.566 E.62999
G1 X183.259 Y54.213 E.02339
G1 X170.29 Y41.244 E.66306
G1 X169.643 Y41.244 E.02339
G1 X183.259 Y54.86 E.69613
G1 X183.259 Y55.507 E.02339
G1 X168.996 Y41.244 E.72921
G1 X168.35 Y41.244 E.02339
G1 X183.259 Y56.153 E.76228
G1 X183.259 Y56.8 E.02339
G1 X167.703 Y41.244 E.79535
G1 X167.056 Y41.244 E.02339
G1 X183.259 Y57.447 E.82842
G1 X183.259 Y58.094 E.02339
G1 X166.409 Y41.244 E.8615
G1 X165.762 Y41.244 E.02339
G1 X183.259 Y58.741 E.89457
G1 X183.259 Y59.388 E.02339
G1 X165.115 Y41.244 E.92764
G1 X164.468 Y41.244 E.02339
G1 X183.259 Y60.034 E.96072
G1 X183.259 Y60.681 E.02339
G1 X163.822 Y41.244 E.99379
G1 X163.175 Y41.244 E.02339
G1 X183.259 Y61.328 E1.02686
G1 X183.259 Y61.975 E.02339
G1 X162.528 Y41.244 E1.05994
M73 P2 R49
G1 X161.881 Y41.244 E.02339
G1 X183.259 Y62.622 E1.09301
G1 X183.259 Y63.269 E.02339
G1 X161.234 Y41.244 E1.12608
G1 X160.587 Y41.244 E.02339
G1 X183.259 Y63.915 E1.15916
G1 X183.259 Y64.562 E.02339
G1 X159.94 Y41.244 E1.19223
G1 X159.293 Y41.244 E.02339
G1 X183.259 Y65.209 E1.2253
G1 X183.259 Y65.856 E.02339
G1 X158.647 Y41.244 E1.25838
G1 X158 Y41.244 E.02339
G1 X183.259 Y66.503 E1.29145
G1 X183.259 Y67.15 E.02339
G1 X157.353 Y41.244 E1.32452
G1 X156.706 Y41.244 E.02339
G1 X183.259 Y67.797 E1.35759
G1 X183.259 Y68.443 E.02339
G1 X156.059 Y41.244 E1.39067
G1 X155.412 Y41.244 E.02339
G1 X183.259 Y69.09 E1.42374
G1 X183.259 Y69.737 E.02339
G1 X154.765 Y41.244 E1.45681
G1 X154.119 Y41.244 E.02339
G1 X183.259 Y70.384 E1.48989
G1 X183.259 Y71.031 E.02339
G1 X153.472 Y41.244 E1.52296
G1 X152.825 Y41.244 E.02339
G1 X183.259 Y71.678 E1.55603
G1 X183.259 Y72.324 E.02339
G1 X152.178 Y41.244 E1.58911
G1 X151.531 Y41.244 E.02339
G1 X183.259 Y72.971 E1.62218
G1 X183.259 Y73.618 E.02339
G1 X150.884 Y41.244 E1.65525
G1 X150.237 Y41.244 E.02339
G1 X183.259 Y74.265 E1.68833
G1 X183.259 Y74.912 E.02339
G1 X149.59 Y41.244 E1.7214
G1 X148.944 Y41.244 E.02339
G1 X183.259 Y75.559 E1.75447
G1 X183.259 Y76.206 E.02339
G1 X148.297 Y41.244 E1.78755
G1 X147.65 Y41.244 E.02339
G1 X183.259 Y76.852 E1.82062
G1 X183.259 Y77.499 E.02339
G1 X147.003 Y41.244 E1.85369
G1 X146.356 Y41.244 E.02339
G1 X183.259 Y78.146 E1.88676
G1 X183.259 Y78.793 E.02339
G1 X145.709 Y41.244 E1.91984
G1 X145.062 Y41.244 E.02339
G1 X183.259 Y79.44 E1.95291
G1 X183.259 Y80.087 E.02339
G1 X144.416 Y41.243 E1.98598
G1 X143.769 Y41.243 E.02339
G1 X183.259 Y80.733 E2.01906
G1 X183.259 Y81.38 E.02339
G1 X143.122 Y41.243 E2.05213
G1 X142.475 Y41.243 E.02339
G1 X183.259 Y82.027 E2.0852
G1 X183.259 Y82.674 E.02339
G1 X141.828 Y41.243 E2.11828
G1 X141.181 Y41.243 E.02339
G1 X183.259 Y83.321 E2.15135
G1 X183.259 Y83.968 E.02339
G1 X140.534 Y41.243 E2.18442
G1 X139.888 Y41.243 E.02339
G1 X183.259 Y84.615 E2.2175
G1 X183.259 Y85.261 E.02339
G1 X139.241 Y41.243 E2.25057
G1 X138.594 Y41.243 E.02339
G1 X183.259 Y85.908 E2.28364
G1 X183.259 Y86.555 E.02339
G1 X137.947 Y41.243 E2.31672
G1 X137.3 Y41.243 E.02339
G1 X183.259 Y87.202 E2.34979
G1 X183.259 Y87.849 E.02339
G1 X136.653 Y41.243 E2.38286
G1 X136.006 Y41.243 E.02339
G1 X183.259 Y88.496 E2.41593
M73 P2 R48
G1 X183.259 Y89.142 E.02339
G1 X135.359 Y41.243 E2.44901
G1 X134.713 Y41.243 E.02339
G1 X183.259 Y89.789 E2.48208
M73 P3 R48
G1 X183.259 Y90.436 E.02339
G1 X134.066 Y41.243 E2.51515
G1 X133.419 Y41.243 E.02339
G1 X183.259 Y91.083 E2.54823
G1 X183.259 Y91.73 E.02339
G1 X132.772 Y41.243 E2.5813
G1 X132.125 Y41.243 E.02339
G1 X183.259 Y92.377 E2.61437
G1 X183.259 Y93.023 E.02339
G1 X131.478 Y41.243 E2.64745
G1 X130.831 Y41.243 E.02339
G1 X183.259 Y93.67 E2.68052
G1 X183.259 Y94.317 E.02339
G1 X130.185 Y41.243 E2.71359
G1 X129.538 Y41.243 E.02339
G1 X183.259 Y94.964 E2.74667
G1 X183.259 Y95.611 E.02339
G1 X128.891 Y41.243 E2.77974
G1 X128.244 Y41.243 E.02339
G1 X183.259 Y96.258 E2.81281
G1 X183.259 Y96.905 E.02339
G1 X127.597 Y41.243 E2.84589
G1 X126.95 Y41.243 E.02339
G1 X183.259 Y97.551 E2.87896
G1 X183.259 Y98.198 E.02339
G1 X126.303 Y41.243 E2.91203
G1 X125.656 Y41.243 E.02339
G1 X183.259 Y98.845 E2.9451
G1 X183.259 Y99.492 E.02339
G1 X125.01 Y41.243 E2.97818
G1 X124.363 Y41.243 E.02339
G1 X183.259 Y100.139 E3.01125
G1 X183.259 Y100.786 E.02339
G1 X123.716 Y41.243 E3.04432
G1 X123.069 Y41.243 E.02339
G1 X183.259 Y101.432 E3.0774
G1 X183.259 Y102.079 E.02339
G1 X122.422 Y41.243 E3.11047
G1 X121.775 Y41.243 E.02339
G1 X183.259 Y102.726 E3.14354
G1 X183.259 Y103.373 E.02339
G1 X121.128 Y41.243 E3.17662
G1 X120.482 Y41.243 E.02339
G1 X183.259 Y104.02 E3.20969
G1 X183.259 Y104.667 E.02339
G1 X119.835 Y41.243 E3.24276
G1 X119.188 Y41.243 E.02339
G1 X183.259 Y105.314 E3.27584
G1 X183.259 Y105.96 E.02339
G1 X118.541 Y41.243 E3.30891
G1 X117.894 Y41.243 E.02339
G1 X183.259 Y106.607 E3.34198
G1 X183.259 Y107.254 E.02339
G1 X117.247 Y41.243 E3.37506
G1 X116.6 Y41.243 E.02339
G1 X183.259 Y107.901 E3.40813
G1 X183.259 Y108.548 E.02339
G1 X115.954 Y41.243 E3.4412
M73 P4 R48
G1 X115.307 Y41.243 E.02339
G1 X183.259 Y109.195 E3.47427
G1 X183.259 Y109.841 E.02339
G1 X114.66 Y41.243 E3.50735
G1 X114.013 Y41.243 E.02339
G1 X183.259 Y110.488 E3.54042
G1 X183.259 Y111.135 E.02339
G1 X113.366 Y41.242 E3.57349
G1 X112.719 Y41.242 E.02339
G1 X183.259 Y111.782 E3.60657
G1 X183.259 Y112.429 E.02339
G1 X112.072 Y41.242 E3.63964
G1 X111.425 Y41.242 E.02339
G1 X183.259 Y113.076 E3.67271
G1 X183.259 Y113.723 E.02339
G1 X110.779 Y41.242 E3.70579
G1 X110.132 Y41.242 E.02339
G1 X183.259 Y114.369 E3.73886
G1 X183.259 Y115.016 E.02339
G1 X109.485 Y41.242 E3.77193
G1 X108.838 Y41.242 E.02339
G1 X183.259 Y115.663 E3.80501
G1 X183.259 Y116.31 E.02339
G1 X108.191 Y41.242 E3.83808
G1 X107.544 Y41.242 E.02339
G1 X183.259 Y116.957 E3.87115
G1 X183.259 Y117.604 E.02339
G1 X106.897 Y41.242 E3.90423
